X:3037
T:Jinny O  (Title illegible)
O:england
M:6/8
L:1/8
S:Armitt MS
N:Time signature is given as alla breve - C with a vertical line through
N:it.  Key signature is given as a C# (that's one sharp, not key of) on
N:first line, nothing on second line.   2nd bar of 2nd part - the 3rd
N:quaver (A) appears to be dotted, but not the B
K:G major
EDB, DFG|ABd ABG|EED B,DF|G2A2B2 dAB|G3:||:Bdd Bee|dBA B3|GEE Bdd|Bee fg
f|e
de Bdd|Bee dBA|B3GEE|DB,D FGA|BdA  B3G3:||
